Simply-Cyan-Circles/scalable/status/trophy-gold.svg

<svg xmlns="http://www.w3.org/2000/svg" width="24" height="24"><path d="M11.8 2.24l-2.56.52v1.32l2.57-.52v8.16H9.45v1.22h6.16v-1.22h-2.37V2.24H11.8zM5.6 3.6a8.09 8.02 0 0 0-1.7 4.88 8.09 8.02 0 0 0 6.74 7.9 1.48 1.55 0 0 0-.13.62 1.48 1.55 0 0 0 .15.67 7.39 7.32 0 0 0-4.56 2.75h11.7a7.39 7.32 0 0 0-4.49-2.73 1.48 1.55 0 0 0 .16-.69 1.48 1.55 0 0 0-.13-.62 8.09 8.02 0 0 0 6.74-7.9A8.09 8.02 0 0 0 18.4 3.6h-.98a6.97 6.92 0 0 1 .18.2 6.97 6.92 0 0 1 .4.56 6.97 6.92 0 0 1 .35.6 6.97 6.92 0 0 1 .28.63 6.97 6.92 0 0 1 .22.66 6.97 6.92 0 0 1 .16.67 6.97 6.92 0 0 1 .08.69 6.97 6.92 0 0 1 .02.49 6.97 6.92 0 0 1-.04.69 6.97 6.92 0 0 1-.1.68 6.97 6.92 0 0 1-.17.67 6.97 6.92 0 0 1-.24.66 6.97 6.92 0 0 1-.3.62 6.97 6.92 0 0 1-.37.59 6.97 6.92 0 0 1-.42.55 6.97 6.92 0 0 1-.48.5 6.97 6.92 0 0 1-.52.46 6.97 6.92 0 0 1-.57.4 6.97 6.92 0 0 1-.6.35 6.97 6.92 0 0 1-.64.28 6.97 6.92 0 0 1-.66.22 6.97 6.92 0 0 1-.68.15 6.97 6.92 0 0 1-.7.08 6.97 6.92 0 0 1-.49.02 6.97 6.92 0 0 1-.7-.03 6.97 6.92 0 0 1-.68-.1 6.97 6.92 0 0 1-.68-.18 6.97 6.92 0 0 1-.65-.24 6.97 6.92 0 0 1-.63-.3 6.97 6.92 0 0 1-.6-.36 6.97 6.92 0 0 1-.55-.42 6.97 6.92 0 0 1-.5-.47 6.97 6.92 0 0 1-.47-.52 6.97 6.92 0 0 1-.4-.56 6.97 6.92 0 0 1-.35-.6 6.97 6.92 0 0 1-.29-.63 6.97 6.92 0 0 1-.22-.66 6.97 6.92 0 0 1-.15-.67 6.97 6.92 0 0 1-.08-.7 6.97 6.92 0 0 1-.02-.48 6.97 6.92 0 0 1 .03-.7 6.97 6.92 0 0 1 .1-.68 6.97 6.92 0 0 1 .18-.67 6.97 6.92 0 0 1 .24-.65 6.97 6.92 0 0 1 .3-.62 6.97 6.92 0 0 1 .37-.59 6.97 6.92 0 0 1 .42-.55 6.97 6.92 0 0 1 .04-.04H5.6z" fill="#5beedc"/></svg>

<?xml version="1.0" encoding="UTF-8" standalone="no"?>
<svg
   xmlns:dc="http://purl.org/dc/elements/1.1/"
   xmlns:cc="http://creativecommons.org/ns#"
   xmlns:rdf="http://www.w3.org/1999/02/22-rdf-syntax-ns#"
   xmlns:svg="http://www.w3.org/2000/svg"
   xmlns="http://www.w3.org/2000/svg"
   xmlns:sodipodi="http://sodipodi.sourceforge.net/DTD/sodipodi-0.dtd"
   xmlns:inkscape="http://www.inkscape.org/namespaces/inkscape"
   width="24"
   height="24"
   version="1.1"
   id="svg4"
   sodipodi:docname="trophy-gold.svg"
   inkscape:version="0.92.4 (5da689c313, 2019-01-14)">
  <metadata
     id="metadata10">
    <rdf:RDF>
      <cc:Work
         rdf:about="">
        <dc:format>image/svg+xml</dc:format>
        <dc:type
           rdf:resource="http://purl.org/dc/dcmitype/StillImage" />
        <dc:title></dc:title>
      </cc:Work>
    </rdf:RDF>
  </metadata>
  <defs
     id="defs8" />
  <sodipodi:namedview
     pagecolor="#ffffff"
     bordercolor="#666666"
     borderopacity="1"
     objecttolerance="10"
     gridtolerance="10"
     guidetolerance="10"
     inkscape:pageopacity="0"
     inkscape:pageshadow="2"
     inkscape:window-width="1085"
     inkscape:window-height="480"
     id="namedview6"
     showgrid="false"
     inkscape:zoom="9.8333333"
     inkscape:cx="1.0677966"
     inkscape:cy="12"
     inkscape:window-x="0"
     inkscape:window-y="25"
     inkscape:window-maximized="0"
     inkscape:current-layer="svg4" />
  <path
     d="M 11.8,2.24 9.24,2.76 v 1.32 l 2.57,-0.52 v 8.16 H 9.45 v 1.22 h 6.16 V 11.72 H 13.24 V 2.24 Z M 5.6,3.6 a 8.09,8.02 0 0 0 -1.7,4.88 8.09,8.02 0 0 0 6.74,7.9 1.48,1.55 0 0 0 -0.13,0.62 1.48,1.55 0 0 0 0.15,0.67 7.39,7.32 0 0 0 -4.56,2.75 H 17.8 A 7.39,7.32 0 0 0 13.31,17.69 1.48,1.55 0 0 0 13.47,17 1.48,1.55 0 0 0 13.34,16.38 8.09,8.02 0 0 0 20.08,8.48 8.09,8.02 0 0 0 18.4,3.6 h -0.98 a 6.97,6.92 0 0 1 0.18,0.2 6.97,6.92 0 0 1 0.4,0.56 6.97,6.92 0 0 1 0.35,0.6 6.97,6.92 0 0 1 0.28,0.63 6.97,6.92 0 0 1 0.22,0.66 6.97,6.92 0 0 1 0.16,0.67 6.97,6.92 0 0 1 0.08,0.69 6.97,6.92 0 0 1 0.02,0.49 6.97,6.92 0 0 1 -0.04,0.69 6.97,6.92 0 0 1 -0.1,0.68 6.97,6.92 0 0 1 -0.17,0.67 6.97,6.92 0 0 1 -0.24,0.66 6.97,6.92 0 0 1 -0.3,0.62 6.97,6.92 0 0 1 -0.37,0.59 6.97,6.92 0 0 1 -0.42,0.55 6.97,6.92 0 0 1 -0.48,0.5 6.97,6.92 0 0 1 -0.52,0.46 6.97,6.92 0 0 1 -0.57,0.4 6.97,6.92 0 0 1 -0.6,0.35 6.97,6.92 0 0 1 -0.64,0.28 6.97,6.92 0 0 1 -0.66,0.22 6.97,6.92 0 0 1 -0.68,0.15 6.97,6.92 0 0 1 -0.7,0.08 6.97,6.92 0 0 1 -0.49,0.02 6.97,6.92 0 0 1 -0.7,-0.03 6.97,6.92 0 0 1 -0.68,-0.1 A 6.97,6.92 0 0 1 10.07,14.71 6.97,6.92 0 0 1 9.42,14.47 6.97,6.92 0 0 1 8.79,14.17 6.97,6.92 0 0 1 8.19,13.81 6.97,6.92 0 0 1 7.64,13.39 6.97,6.92 0 0 1 7.14,12.92 6.97,6.92 0 0 1 6.67,12.4 6.97,6.92 0 0 1 6.27,11.84 6.97,6.92 0 0 1 5.92,11.24 6.97,6.92 0 0 1 5.63,10.61 6.97,6.92 0 0 1 5.41,9.95 6.97,6.92 0 0 1 5.26,9.28 6.97,6.92 0 0 1 5.18,8.58 6.97,6.92 0 0 1 5.16,8.1 6.97,6.92 0 0 1 5.19,7.4 6.97,6.92 0 0 1 5.29,6.72 6.97,6.92 0 0 1 5.47,6.05 6.97,6.92 0 0 1 5.71,5.4 6.97,6.92 0 0 1 6.01,4.78 6.97,6.92 0 0 1 6.38,4.19 6.97,6.92 0 0 1 6.8,3.64 6.97,6.92 0 0 1 6.84,3.6 Z"
     id="path2"
     inkscape:connector-curvature="0"
     style="fill:#5beedc" />
</svg>
